X:617
T:Pericote (MG 29)
R:Danza
C:Versin de Ignacio Noriega (San Roque L'Acebal, Llanes)
S:Msica Tradicional Asturiana, (C) Tello & Tito. Asturies, 2001.
S:http://pagina.de/MusTradAst <telloytito@asturies.org>
N:El Pericote ye la sea d'identid del folclor Llaniscu.
N:La estructura del baille ye una trada de dos muyeres y un home.
N:N'otra dmina poden intervenir una o delles trades segn les qu'hubiesen nel momentu.
N:Cantbenlu delles muyeres que s'acompaaben de panderetes y tambor.
N:Gei, el Pericote billenlu siempres delles trades al son de la gaita y el tambor.
N:Tantu pol ritmu, comu pol so calter, el Pericote ta emparentu col Corri-Corri de Cabrales.
A:Asturies
O:Llanes
Z:Mtodu de Gaita 29
P:AAB
M:2/4
L:1/4
Q:2/4=80
E:Nivel 3
K:C
P:A
~G/2|C E|G3/2 G/2|G/2~A/2G/2F/2|G G|
~A3/2 G/2|E G/2G/2|F ~D|C2|EG|G/2A/2G/2F/2|
E D|.E E/2F/2|G G/2G/2|~D F|~E D|~C C/2D/2|
C E|G G/2G/2|G/2~A/2G/2F/2|.G G|~A3/2 G/2|E G/2G/2|
F ~D|C2|.E .F|F G/2G/2|~E D|.E E/2F/2|
G G/2G/2|~D F|E D|C3/4D1/4 C3/4G1/4|C D|E F|
.E E|F G/2~A/2|G G|E G/2G/2|F D|C C|
E F|F G/2G/2|E D|E E/2F/2|G G/2G/2|
~D F|~E D|~C C/2D/2|:C G|c3/2 ~d/2|c/2~d/2c/2B/2|
K:F
c2|~d3/2 c/2|A ~c|B G|F/2E/2F/2G/2|C c/2~e/2|
c/2~e/2c/2G/2|~A G|~A3/2 B/2|c/2~e/2c/2B/2|A ~c|
B G|[1 ~F E/2D/2:|[2 .F F/2E/2||F G|A B|B A|
B c/2~d/2|c/2~d/2 c/2B/2|A c|B G||
K:C
~F E/2D/2|
C E|G3/2G/2|G/2~A/2G/2F/2|.G G|~A3/2 G/2|
E E/2G/2|F ~D|C2|E G|G/2~A/2G/2F/2|
E ~D|.E E/2F/2|G/2~A/2G/2~A/2|D/2B,/2D/2F/2|~E D|
C/2D/2~C/2B,/2|C E|G3/2 G/2|G/2~A/2G/2F/2|.G G|
A G|.E E/2G/2|F ~D|C C|E F|
F G/2G/2|E D|E E/2F/2|G/2~A/2G/2~A/2|D/2B,/2D/2F/2|
~E D|C2|~A3/2 G/2|.F F|G/2c/2 G/2F/2|
.E E/2E/2|F/2G/2F/2~E/2|D D/2D/2|E/2F/2~E/2D/2|C2|
~A3/2 G/2|.F/2F/2G/2A/2|B/2~A/2G/2F/2|.E/2E/2F/2G/2|c/2G/2F/2~E/2|
D/2D/2E/2F/2|G/2F/2~E/2D/2|C G/2G/2|C D/2E/2|E/2F/2~E/2D/2|
C/2~D/2C/2B,/2|C ({D/2}C)|C D|E F|E E|F G/2~A/2|
G ~G|E G/2G/2|F ~D|C ({D/2}C)|E G|
G/2c/2G/2F/2|~E D|.E E/2F/2|G/2~A/2G/2A/2|~D/2B,/2D/2F/2|
~E D|~C3/2 B,/2||
M:4/4
